X:1
T:Title
%%score { 1 | 2 }
L:1/8
M:4/4
K:C
V:1 treble nm="Grand Piano"
V:2 bass 
V:1
 z4 z2[Q:1/4=100] [CEG]2 | [G,CE]2[K:bass] [G,B,E]>[F,B,D] [F,B,D] [E,C]2[K:treble] [Ec] | %2
 c2 c>A c3 A | [EG]2 [EG]>[FA] [EG]EDC | [B,D]6 [B,G]2 | [CE]2 [B,E]>[B,D] D C2 [Ec] | %6
[M:7/8] c2 c>A c3 |[M:1/8] d |[M:4/4] e3 c d4 |[M:3/4] [Ec]6 |[M:1/4] [Ec]2 | %11
[M:4/4] B>B B>c d>d e>d | [Ec]>[Ec] [GB]>[FA] [EG]3 [EG] | A>A A>A [^Fd]2 [Fe]2 | %14
[M:9/8] d6 e3/2d3/2 |[M:4/4] [Ec]>[EB] [Ec]>[FA] [EG]3 [EG] | %16
[M:19/16] A>^GA>[GB][Ac]/-[Ac]/-[Ac]/-[Ac]/-[Ac]/-[Ac]-<[Ac][Gd] |[M:4/4] e3 c d4 |[M:3/4] [Ec]6 |] %19
V:2
 z4 z2 C,2 | C,2 G,,>G,, C, C,2 [C,G,] | [F,A,F]2 [F,A,F]>[F,CF] [F,A,F]3 [F,CF] | %3
 [C,C]2 [C,C]>[C,C] [C,C][C,G,C][D,^F,C][D,F,] | [G,,G,]6 [G,,G,]2 | %5
 [C,G,]2 [G,,G,]>[G,,F,] [C,F,B,] [C,E,]2 [C,G,] | %6
[M:7/8][K:treble] [F,A,F]2 [F,A,F]>[F,CF] [F,A,F]3 |[M:1/8] [F,A,F] | %8
[M:4/4] [G,CE]3 [G,CE] [G,B,F]4 |[M:3/4][K:bass] [C,C]6 |[M:1/4] [C,C]2 | %11
[M:4/4][K:treble] [G,DF]>[G,DF] [G,DF]>[G,CE] [G,B,F]>[G,B,F] [G,CG]>[G,B,F] | %12
 [C,C]>[C,C] [C,C]>[C,C] [C,C]3 [C,C] | [F,CF]>[F,CF] [F,CF]>[F,CF] [D,C]2 [D,C]2 | %14
[M:9/8][K:treble] [G,B,F]6 [G,B,G]3/2[G,B,F]3/2 | %15
[M:4/4][K:bass] [C,C]>[C,C] [C,C]>[C,C] [C,C]3 [C,C] | %16
[M:19/16] [F,CF]>[F,CF][F,CF]>[F,C][F,C]/-[F,C]/-[F,C]/-[F,C]/-[F,C]/-[F,C]-<[F,C][F,C] | %17
[M:4/4][K:treble] [G,CG]3 [G,CE] [G,B,F]4 |[M:3/4][K:bass] [C,C]6 |] %19

